assets/icon/neutrino_icon.svg

<svg xmlns="http://www.w3.org/2000/svg" viewBox="0 0 256 256"><circle fill="#0b1323" r="128" cy="128" cx="128"/><path fill="#ccccdb" d="M158 146.5 98.25 43 97 44l1 65.5L157.75 213l1.25-1"/><path fill="#2dbdf0" d="M98 93V67h60v26"/><path fill="#0acfbf" d="M98 141v-26h60v26"/><path fill="#9f55fa" d="M98 189v-26h60v26"/><path fill="#efe6f2" d="M157.75 43h15c10.526 0 19 8.474 19 19v132c0 10.526-8.474 19-19 19h-15m-59.5 0h-15c-10.526 0-19-8.474-19-19V62c0-10.526 8.474-19 19-19h15"/></svg>

<svg xmlns="http://www.w3.org/2000/svg" stroke="none" width="256" height="256"><circle fill="#0b1323" r="128" cy="128" cx="128"/><path fill="#ccccdb" d="M158,146.5 98.25,43 97,44 98,109.5 157.75,213 159,212"/><path fill="#2dbdf0" d="M98,93V67H158V93"/><path fill="#0acfbf" d="M98,141V115H158V141"/><path fill="#9f55fa" d="M98,189V163H158V189"/><path fill="#efe6f2" d="M157.75,43H172.75C183.276,43 191.75,51.474 191.75,62V194C191.75,204.526 183.276,213 172.75,213H157.75M98.25,213H83.25C72.724,213 64.25,204.526 64.25,194V62C64.25,51.474 72.724,43 83.25,43H98.25"/></svg>
